X:240
T:Royal Polka Quadrilles No.2. Le4.240, The
M:2/4
L:1/8
Q:2/4=50
N:* g in Mss (amended as entire rest of section is in parallel octaves)
N:** a2a2a2 & ccc in Mss
B:L.Leadley MS#4 c1850
Z:Village Music Project 2016 Steve Mansfield
K:G
!segno! dB gB | dc/B/ c/e/ A | cA ac | ed/^c/ d/g/B |
dBgB | dc/B/ c/e/A | cA c'f | ag/f/ gz H ||
"1st & 3rd" f A2 c | d/e/d zb | c/d/c za | B/c/B zg |
f A2 c | d/e/d zb | c/d/c zf | ggg z ||
[K:C]
g/a/g2 c' | c'a d'/c'/b | g/a/g2 d' | d'c' e'/d'/c' |
g/a/g2 c' | c'b e'/d'/c' | g/a/g f'b | c'3 z ||
d/e/f/g/ a/b/c'/d'/ & D/E/F/G/ A/B/c/d/ | c'b d'/c'/b & cB d/c/B | \
ba c'/b/"*"a & BA c/B/A | ag b/a/g & AG B/A/G |
d/e/^f/g/ a/b/c'/a/ & D/E/^F/G/ A/B/c/A/ |  c'b d'/c'/b & cB d/c/B | \
ba c'/b/a & BA c/B/A | gz g2 & Gz G2 |
b/a/f b/a/f & B/A/F B/A/F | b/a/g b/a/g/f/ & B/A/G B/A/G/F/ | \
e/g/c'/e'/ g'b & E/G/c/e/ gB | e'/d'/c'/b/ c'/b/a & e/d/c/B/ c/B/A |
b/a/f b/a/f & B/A/F B/A/F | b/a/g b/a/g/f/ & B/A/G B/A/G/F/ | \
e/g/c'/e'/ g'b & E/G/c/e/ gB | "**"aaa & ccc |]

